documentation/public/assets/images/input-06.svg

<svg width="672" height="159" viewBox="0 0 672 159" fill="none" xmlns="http://www.w3.org/2000/svg">
<rect width="672" height="159" fill="#F6F6F6"/>
<rect x="190" y="60.5" width="292" height="39" rx="3.5" fill="#EBEBEB"/>
<path d="M209.273 77.2727C209.205 76.697 208.928 76.25 208.443 75.9318C207.958 75.6136 207.364 75.4545 206.659 75.4545C206.144 75.4545 205.693 75.5379 205.307 75.7045C204.924 75.8712 204.625 76.1004 204.409 76.392C204.197 76.6837 204.091 77.0152 204.091 77.3864C204.091 77.697 204.165 77.964 204.312 78.1875C204.464 78.4072 204.657 78.5909 204.892 78.7386C205.127 78.8826 205.373 79.0019 205.631 79.0966C205.888 79.1875 206.125 79.2614 206.341 79.3182L207.523 79.6364C207.826 79.7159 208.163 79.8258 208.534 79.9659C208.909 80.1061 209.267 80.2973 209.608 80.5398C209.953 80.7784 210.237 81.0852 210.46 81.4602C210.684 81.8352 210.795 82.2955 210.795 82.8409C210.795 83.4697 210.631 84.0379 210.301 84.5455C209.975 85.053 209.498 85.4564 208.869 85.7557C208.244 86.0549 207.485 86.2045 206.591 86.2045C205.758 86.2045 205.036 86.0701 204.426 85.8011C203.82 85.5322 203.343 85.1572 202.994 84.6761C202.65 84.1951 202.455 83.6364 202.409 83H203.864C203.902 83.4394 204.049 83.803 204.307 84.0909C204.568 84.375 204.898 84.5871 205.295 84.7273C205.697 84.8636 206.129 84.9318 206.591 84.9318C207.129 84.9318 207.612 84.8447 208.04 84.6705C208.468 84.4924 208.807 84.2462 209.057 83.9318C209.307 83.6136 209.432 83.2424 209.432 82.8182C209.432 82.4318 209.324 82.1174 209.108 81.875C208.892 81.6326 208.608 81.4356 208.256 81.2841C207.903 81.1326 207.523 81 207.114 80.8864L205.682 80.4773C204.773 80.2159 204.053 79.8428 203.523 79.358C202.992 78.8731 202.727 78.2386 202.727 77.4545C202.727 76.803 202.903 76.2348 203.256 75.75C203.612 75.2614 204.089 74.8826 204.688 74.6136C205.29 74.3409 205.962 74.2045 206.705 74.2045C207.455 74.2045 208.121 74.339 208.705 74.608C209.288 74.8731 209.75 75.2367 210.091 75.6989C210.436 76.161 210.617 76.6856 210.636 77.2727H209.273ZM215.499 86.2045C214.946 86.2045 214.444 86.1004 213.993 85.892C213.542 85.6799 213.184 85.375 212.919 84.9773C212.654 84.5758 212.521 84.0909 212.521 83.5227C212.521 83.0227 212.62 82.6174 212.817 82.3068C213.014 81.9924 213.277 81.7462 213.607 81.5682C213.936 81.3902 214.3 81.2576 214.697 81.1705C215.099 81.0795 215.502 81.0076 215.908 80.9545C216.438 80.8864 216.868 80.8352 217.197 80.8011C217.531 80.7633 217.773 80.7008 217.925 80.6136C218.08 80.5265 218.158 80.375 218.158 80.1591V80.1136C218.158 79.553 218.004 79.1174 217.697 78.8068C217.394 78.4962 216.934 78.3409 216.317 78.3409C215.677 78.3409 215.175 78.4811 214.811 78.7614C214.447 79.0417 214.192 79.3409 214.044 79.6591L212.771 79.2045C212.999 78.6742 213.302 78.2614 213.68 77.9659C214.063 77.6667 214.48 77.4583 214.93 77.3409C215.385 77.2197 215.832 77.1591 216.271 77.1591C216.552 77.1591 216.874 77.1932 217.237 77.2614C217.605 77.3258 217.959 77.4602 218.3 77.6648C218.644 77.8693 218.93 78.178 219.158 78.5909C219.385 79.0038 219.499 79.5568 219.499 80.25V86H218.158V84.8182H218.089C217.999 85.0076 217.847 85.2102 217.635 85.4261C217.423 85.642 217.141 85.8258 216.788 85.9773C216.436 86.1288 216.006 86.2045 215.499 86.2045ZM215.703 85C216.233 85 216.68 84.8958 217.044 84.6875C217.411 84.4792 217.688 84.2102 217.874 83.8807C218.063 83.5511 218.158 83.2045 218.158 82.8409V81.6136C218.101 81.6818 217.976 81.7443 217.783 81.8011C217.593 81.8542 217.374 81.9015 217.124 81.9432C216.877 81.9811 216.637 82.0152 216.402 82.0455C216.171 82.072 215.983 82.0947 215.839 82.1136C215.491 82.1591 215.165 82.233 214.862 82.3352C214.563 82.4337 214.321 82.5833 214.135 82.7841C213.953 82.9811 213.862 83.25 213.862 83.5909C213.862 84.0568 214.035 84.4091 214.379 84.6477C214.728 84.8826 215.169 85 215.703 85ZM221.946 86V77.2727H223.241V78.6364H223.355C223.537 78.1705 223.83 77.8087 224.236 77.5511C224.641 77.2898 225.128 77.1591 225.696 77.1591C226.272 77.1591 226.751 77.2898 227.134 77.5511C227.52 77.8087 227.821 78.1705 228.037 78.6364H228.128C228.351 78.1856 228.687 77.8277 229.134 77.5625C229.58 77.2936 230.116 77.1591 230.741 77.1591C231.522 77.1591 232.16 77.4034 232.656 77.892C233.152 78.3769 233.401 79.1326 233.401 80.1591V86H232.06V80.1591C232.06 79.5152 231.884 79.0549 231.531 78.7784C231.179 78.5019 230.764 78.3636 230.287 78.3636C229.673 78.3636 229.198 78.5492 228.861 78.9205C228.524 79.2879 228.355 79.7538 228.355 80.3182V86H226.991V80.0227C226.991 79.5265 226.83 79.1269 226.509 78.8239C226.187 78.517 225.772 78.3636 225.264 78.3636C224.916 78.3636 224.59 78.4564 224.287 78.642C223.988 78.8277 223.745 79.0852 223.56 79.4148C223.378 79.7405 223.287 80.1174 223.287 80.5455V86H221.946ZM241.352 82.4318V77.2727H242.693V86H241.352V84.5227H241.261C241.057 84.9659 240.739 85.3428 240.307 85.6534C239.875 85.9602 239.33 86.1136 238.67 86.1136C238.125 86.1136 237.64 85.9943 237.216 85.7557C236.792 85.5133 236.458 85.1496 236.216 84.6648C235.973 84.1761 235.852 83.5606 235.852 82.8182V77.2727H237.193V82.7273C237.193 83.3636 237.371 83.8712 237.727 84.25C238.087 84.6288 238.545 84.8182 239.102 84.8182C239.436 84.8182 239.775 84.733 240.119 84.5625C240.468 84.392 240.759 84.1307 240.994 83.7784C241.233 83.4261 241.352 82.9773 241.352 82.4318ZM248.808 86.1818C247.967 86.1818 247.242 85.9962 246.632 85.625C246.026 85.25 245.558 84.7273 245.229 84.0568C244.903 83.3826 244.74 82.5985 244.74 81.7045C244.74 80.8106 244.903 80.0227 245.229 79.3409C245.558 78.6553 246.017 78.1212 246.604 77.7386C247.195 77.3523 247.884 77.1591 248.672 77.1591C249.126 77.1591 249.575 77.2348 250.018 77.3864C250.462 77.5379 250.865 77.7841 251.229 78.125C251.592 78.4621 251.882 78.9091 252.098 79.4659C252.314 80.0227 252.422 80.7083 252.422 81.5227V82.0909H245.695V80.9318H251.058C251.058 80.4394 250.96 80 250.763 79.6136C250.57 79.2273 250.293 78.9223 249.933 78.6989C249.577 78.4754 249.157 78.3636 248.672 78.3636C248.138 78.3636 247.676 78.4962 247.286 78.7614C246.899 79.0227 246.602 79.3636 246.393 79.7841C246.185 80.2045 246.081 80.6553 246.081 81.1364V81.9091C246.081 82.5682 246.195 83.1269 246.422 83.5852C246.653 84.0398 246.973 84.3864 247.382 84.625C247.791 84.8598 248.267 84.9773 248.808 84.9773C249.161 84.9773 249.479 84.928 249.763 84.8295C250.051 84.7273 250.299 84.5758 250.507 84.375C250.715 84.1705 250.876 83.9167 250.99 83.6136L252.286 83.9773C252.149 84.4167 251.92 84.803 251.598 85.1364C251.276 85.4659 250.878 85.7235 250.405 85.9091C249.931 86.0909 249.399 86.1818 248.808 86.1818ZM255.803 74.3636V86H254.462V74.3636H255.803Z" fill="#1F1F1F"/>
<rect x="190" y="60.5" width="292" height="39" rx="3.5" stroke="#545454"/>
<path d="M198.871 37.8182V48H197.231L192.433 41.0646H192.349V48H190.504V37.8182H192.155L196.947 44.7585H197.037V37.8182H198.871ZM202.999 48.1541C202.515 48.1541 202.079 48.0679 201.692 47.8956C201.307 47.7199 201.002 47.4614 200.777 47.12C200.555 46.7786 200.444 46.3577 200.444 45.8572C200.444 45.4264 200.523 45.0701 200.682 44.7884C200.841 44.5066 201.059 44.2812 201.334 44.1122C201.609 43.9432 201.919 43.8156 202.263 43.7294C202.611 43.6399 202.971 43.5753 203.342 43.5355C203.79 43.4891 204.153 43.4477 204.431 43.4112C204.709 43.3714 204.912 43.3118 205.037 43.2322C205.167 43.1494 205.231 43.0218 205.231 42.8494V42.8196C205.231 42.4451 205.12 42.1551 204.898 41.9496C204.676 41.7441 204.356 41.6413 203.939 41.6413C203.498 41.6413 203.148 41.7375 202.89 41.9297C202.635 42.1219 202.462 42.349 202.373 42.6108L200.692 42.3722C200.825 41.9081 201.044 41.5204 201.349 41.2088C201.653 40.8939 202.026 40.6586 202.467 40.5028C202.908 40.3438 203.395 40.2642 203.929 40.2642C204.297 40.2642 204.663 40.3073 205.028 40.3935C205.392 40.4796 205.725 40.6222 206.027 40.821C206.328 41.0166 206.57 41.2834 206.753 41.6214C206.938 41.9595 207.031 42.3821 207.031 42.8892V48H205.301V46.951H205.241C205.132 47.1631 204.978 47.362 204.779 47.5476C204.583 47.7299 204.336 47.8774 204.038 47.9901C203.743 48.0994 203.397 48.1541 202.999 48.1541ZM203.466 46.8317C203.828 46.8317 204.141 46.7604 204.406 46.6179C204.671 46.4721 204.875 46.2798 205.018 46.0412C205.163 45.8026 205.236 45.5424 205.236 45.2607V44.3608C205.18 44.4072 205.084 44.4503 204.948 44.4901C204.815 44.5298 204.666 44.5646 204.501 44.5945C204.335 44.6243 204.171 44.6508 204.008 44.674C203.846 44.6972 203.705 44.7171 203.586 44.7337C203.317 44.7701 203.077 44.8298 202.865 44.9126C202.653 44.9955 202.485 45.1115 202.363 45.2607C202.24 45.4065 202.179 45.5954 202.179 45.8274C202.179 46.1589 202.3 46.4091 202.542 46.5781C202.784 46.7472 203.092 46.8317 203.466 46.8317ZM208.841 48V40.3636H210.561V41.6612H210.65C210.809 41.2237 211.073 40.8823 211.441 40.6371C211.809 40.3885 212.248 40.2642 212.758 40.2642C213.275 40.2642 213.711 40.3902 214.066 40.642C214.424 40.8906 214.676 41.2304 214.822 41.6612H214.901C215.07 41.237 215.355 40.8989 215.756 40.647C216.161 40.3918 216.64 40.2642 217.193 40.2642C217.896 40.2642 218.469 40.4863 218.913 40.9304C219.357 41.3745 219.579 42.0225 219.579 42.8743V48H217.775V43.1527C217.775 42.6787 217.649 42.3324 217.397 42.1136C217.145 41.8916 216.837 41.7805 216.472 41.7805C216.038 41.7805 215.698 41.9164 215.453 42.1882C215.211 42.4567 215.09 42.8063 215.09 43.2372V48H213.325V43.0781C213.325 42.6837 213.206 42.3688 212.967 42.1335C212.732 41.8982 212.424 41.7805 212.042 41.7805C211.784 41.7805 211.549 41.8468 211.336 41.9794C211.124 42.1087 210.955 42.2926 210.829 42.5312C210.703 42.7666 210.64 43.0417 210.64 43.3565V48H208.841ZM224.786 48.1491C224.02 48.1491 223.359 47.9901 222.802 47.6719C222.249 47.3504 221.823 46.8963 221.525 46.3097C221.226 45.7197 221.077 45.0253 221.077 44.2266C221.077 43.4411 221.226 42.7517 221.525 42.1584C221.826 41.5618 222.247 41.0978 222.787 40.7663C223.328 40.4316 223.962 40.2642 224.691 40.2642C225.162 40.2642 225.606 40.3404 226.024 40.4929C226.445 40.642 226.816 40.8741 227.137 41.1889C227.462 41.5038 227.717 41.9048 227.903 42.392C228.089 42.8759 228.181 43.4527 228.181 44.1222V44.674H221.922V43.4609H226.456C226.453 43.1162 226.378 42.8097 226.233 42.5412C226.087 42.2694 225.883 42.0556 225.621 41.8999C225.363 41.7441 225.061 41.6662 224.716 41.6662C224.348 41.6662 224.025 41.7557 223.747 41.9347C223.468 42.1103 223.251 42.3423 223.096 42.6307C222.943 42.9157 222.865 43.2289 222.862 43.5703V44.6293C222.862 45.0734 222.943 45.4545 223.105 45.7727C223.268 46.0876 223.495 46.3295 223.787 46.4986C224.078 46.6643 224.42 46.7472 224.811 46.7472C225.073 46.7472 225.31 46.7107 225.522 46.6378C225.734 46.5616 225.918 46.4505 226.074 46.3047C226.229 46.1589 226.347 45.9782 226.426 45.7628L228.107 45.9517C228.001 46.3958 227.799 46.7836 227.5 47.1151C227.205 47.4432 226.828 47.6984 226.367 47.8807C225.906 48.0597 225.379 48.1491 224.786 48.1491Z" fill="#333333"/>
</svg>

<svg width="672" height="159" fill="none" xmlns="http://www.w3.org/2000/svg"><path fill="#F6F6F6" d="M0 0h672v159H0z"/><rect x="190" y="60.5" width="292" height="39" rx="3.5" fill="#EBEBEB"/><path d="M209.27 77.27a1.78 1.78 0 0 0-.83-1.34 3.18 3.18 0 0 0-1.78-.48c-.52 0-.97.09-1.35.25-.39.17-.69.4-.9.7a1.65 1.65 0 0 0-.1 1.79c.15.22.35.4.58.55.24.14.48.26.74.36l.71.22 1.18.32c.3.08.64.19 1.01.33.38.14.74.33 1.08.57a2.65 2.65 0 0 1 1.19 2.3c0 .63-.17 1.2-.5 1.7-.33.51-.8.92-1.43 1.22-.63.3-1.38.44-2.28.44a5.3 5.3 0 0 1-2.16-.4 3.22 3.22 0 0 1-2.02-2.8h1.45c.04.44.19.8.45 1.1.26.28.59.49.98.63a4.21 4.21 0 0 0 2.75-.06c.43-.18.77-.42 1.02-.74s.37-.69.37-1.11c0-.39-.1-.7-.32-.94-.22-.25-.5-.44-.85-.6a9 9 0 0 0-1.15-.4l-1.43-.4a5.33 5.33 0 0 1-2.16-1.12 2.46 2.46 0 0 1-.8-1.9c0-.66.18-1.23.54-1.71a3.5 3.5 0 0 1 1.43-1.14c.6-.27 1.27-.4 2.02-.4s1.41.13 2 .4c.58.26 1.04.63 1.38 1.09.35.46.53.99.55 1.57h-1.37Zm6.23 8.93c-.55 0-1.06-.1-1.5-.3a2.64 2.64 0 0 1-1.08-.92c-.27-.4-.4-.89-.4-1.46 0-.5.1-.9.3-1.21.2-.32.46-.56.79-.74.33-.18.69-.31 1.09-.4.4-.1.8-.16 1.2-.22l1.3-.15c.33-.04.57-.1.73-.19.15-.08.23-.23.23-.45v-.05c0-.56-.16-1-.46-1.3-.3-.31-.77-.47-1.38-.47a2.39 2.39 0 0 0-2.28 1.32l-1.27-.46a3.07 3.07 0 0 1 2.16-1.86 5.2 5.2 0 0 1 2.3-.08c.38.07.73.2 1.07.4.34.2.63.52.86.93.22.41.34.97.34 1.66V86h-1.34v-1.18h-.07a2.62 2.62 0 0 1-1.3 1.16 3.3 3.3 0 0 1-1.3.22Zm.2-1.2c.53 0 .98-.1 1.34-.31a2.13 2.13 0 0 0 1.12-1.85v-1.23c-.06.07-.18.13-.38.2-.19.04-.4.1-.66.13a30.34 30.34 0 0 1-1.28.17c-.35.05-.68.12-.98.23-.3.1-.54.24-.73.44-.18.2-.27.47-.27.81 0 .47.17.82.52 1.06.35.23.79.35 1.32.35Zm6.25 1v-8.73h1.3v1.37h.1c.19-.47.48-.83.89-1.09.4-.26.89-.4 1.46-.4s1.05.14 1.43.4c.39.26.7.62.9 1.09h.1a2.6 2.6 0 0 1 1-1.08c.45-.27.99-.4 1.61-.4.78 0 1.42.24 1.92.73s.74 1.24.74 2.27V86h-1.34v-5.84c0-.64-.18-1.1-.53-1.38a1.96 1.96 0 0 0-1.24-.42c-.62 0-1.1.19-1.43.56-.34.37-.5.83-.5 1.4V86h-1.37v-5.98c0-.5-.16-.9-.48-1.2a1.88 1.88 0 0 0-2.22-.18c-.3.19-.54.45-.73.77-.18.33-.27.7-.27 1.14V86h-1.34Zm19.4-3.57v-5.16h1.34V86h-1.34v-1.48h-.09c-.2.45-.52.82-.95 1.13-.44.31-.98.46-1.64.46a3 3 0 0 1-1.45-.35 2.5 2.5 0 0 1-1-1.1 4.14 4.14 0 0 1-.37-1.84v-5.55h1.34v5.46c0 .63.18 1.14.54 1.52.36.38.81.57 1.37.57a2.28 2.28 0 0 0 1.9-1.04c.23-.35.35-.8.35-1.35Zm7.46 3.75a3.73 3.73 0 0 1-3.58-2.13 5.34 5.34 0 0 1-.49-2.35c0-.89.16-1.68.49-2.36a3.7 3.7 0 0 1 3.44-2.18c.46 0 .9.07 1.35.23a3.34 3.34 0 0 1 2.08 2.08c.21.55.32 1.24.32 2.05v.57h-6.72v-1.16h5.36c0-.5-.1-.93-.3-1.32a2.22 2.22 0 0 0-2.09-1.25 2.53 2.53 0 0 0-2.28 1.42 3 3 0 0 0-.3 1.36v.77c0 .66.1 1.22.33 1.68.23.45.55.8.96 1.03.41.24.89.36 1.43.36.35 0 .67-.05.95-.15.3-.1.54-.25.75-.45.2-.2.37-.46.48-.77l1.3.37a2.9 2.9 0 0 1-.7 1.16c-.31.33-.71.58-1.19.77-.47.18-1 .27-1.6.27Zm7-11.82V86h-1.35V74.36h1.34Z" fill="#1F1F1F"/><rect x="190" y="60.5" width="292" height="39" rx="3.5" stroke="#545454"/><path d="M198.87 37.82V48h-1.64l-4.8-6.94h-.08V48h-1.85V37.82h1.66l4.79 6.94h.09v-6.94h1.83ZM203 48.15c-.49 0-.92-.08-1.3-.25a2.13 2.13 0 0 1-.92-.78 2.27 2.27 0 0 1-.34-1.26c0-.43.08-.79.24-1.07.16-.28.38-.5.65-.68.28-.17.59-.3.93-.38.35-.09.71-.15 1.08-.2l1.1-.12c.27-.04.47-.1.6-.18.13-.08.2-.2.2-.38v-.03c0-.37-.12-.66-.34-.87-.22-.2-.54-.3-.96-.3-.44 0-.8.09-1.05.28-.25.2-.43.42-.52.68l-1.68-.24a2.69 2.69 0 0 1 1.78-1.87 4.76 4.76 0 0 1 2.56-.1c.36.08.7.22 1 .42.3.2.54.46.72.8.19.34.28.76.28 1.27V48h-1.73v-1.05h-.06a2.19 2.19 0 0 1-1.2 1.04c-.3.1-.64.16-1.04.16Zm.47-1.32a2 2 0 0 0 .94-.21c.26-.15.47-.34.6-.58.15-.24.23-.5.23-.78v-.9a.84.84 0 0 1-.3.13 13.77 13.77 0 0 1-1.36.24c-.26.04-.5.1-.72.18-.2.09-.38.2-.5.35a.85.85 0 0 0-.18.57c0 .33.12.58.36.75.24.17.55.25.93.25Zm5.37 1.17v-7.64h1.72v1.3h.09c.16-.44.42-.78.8-1.02.36-.25.8-.38 1.3-.38.53 0 .96.13 1.32.38.35.25.6.59.75 1.02h.08c.17-.42.45-.76.86-1.01.4-.26.88-.39 1.43-.39.7 0 1.28.23 1.72.67.45.44.67 1.1.67 1.94V48h-1.8v-4.85c0-.47-.13-.82-.38-1.04a1.35 1.35 0 0 0-.93-.33c-.43 0-.77.14-1.02.4a1.5 1.5 0 0 0-.36 1.06V48h-1.77v-4.92c0-.4-.11-.71-.35-.95a1.25 1.25 0 0 0-.93-.35 1.36 1.36 0 0 0-1.21.75 1.7 1.7 0 0 0-.19.83V48h-1.8Zm15.95.15c-.77 0-1.43-.16-1.99-.48a3.23 3.23 0 0 1-1.28-1.36 4.55 4.55 0 0 1-.44-2.08c0-.79.15-1.48.44-2.07a3.38 3.38 0 0 1 3.17-1.9c.47 0 .92.08 1.33.23a3 3 0 0 1 1.12.7c.32.31.58.71.76 1.2.19.49.28 1.06.28 1.73v.55h-6.26v-1.2h4.54c0-.35-.08-.66-.23-.93a1.63 1.63 0 0 0-.6-.64 1.72 1.72 0 0 0-.91-.23 1.8 1.8 0 0 0-1.62.96 2 2 0 0 0-.24.94v1.06c0 .44.08.82.24 1.14a1.8 1.8 0 0 0 1.71.98c.26 0 .5-.04.71-.11a1.55 1.55 0 0 0 .91-.88l1.68.2c-.1.44-.31.82-.61 1.16-.3.32-.67.58-1.13.76-.46.18-1 .27-1.58.27Z" fill="#333"/></svg>
